packages/icons/svg/Instruction_Hygiene_Plexiglas_32px.svg

<svg xmlns="http://www.w3.org/2000/svg" viewBox="0 0 32 32"><path d="M7.5 11a.47.47 0 00.35-.15l3-3a.49.49 0 00-.7-.7l-3 3a.48.48 0 000 .7.47.47 0 00.35.15zM7.15 14.85a.48.48 0 00.7 0l7-7a.49.49 0 00-.7-.7l-7 7a.48.48 0 000 .7zM18.77 13.84a.25.25 0 00.5 0A1.76 1.76 0 0121 12.09a.25.25 0 000-.5 1.75 1.75 0 01-1.75-1.75.25.25 0 00-.5 0A1.75 1.75 0 0117 11.59a.25.25 0 000 .5 1.75 1.75 0 011.77 1.75zM17.5 18.5a5 5 0 015 5 .5.5 0 001 0 5 5 0 015-5 .5.5 0 000-1 5 5 0 01-5-5 .5.5 0 00-1 0 5 5 0 01-5 5 .5.5 0 000 1zm5.5-3.6a6.09 6.09 0 003.1 3.1 6.09 6.09 0 00-3.1 3.1 6.09 6.09 0 00-3.1-3.1 6.09 6.09 0 003.1-3.1z"/><path d="M27 3H5a2 2 0 00-2 2v22a2 2 0 002 2h6a2 2 0 002-2v-2h6v2a2 2 0 002 2h6a2 2 0 002-2v-6a1 1 0 00-2 0v6h-6v-2a2 2 0 00-2-2h-6a2 2 0 00-2 2v2H5V5h22v10a1 1 0 002 0V5a2 2 0 00-2-2z"/></svg>

<svg xmlns="http://www.w3.org/2000/svg" viewBox="0 0 32 32"><defs></defs><g id="Icon"><path  d="M7.5,11a.47.47,0,0,0,.35-.15l3-3a.49.49,0,0,0-.7-.7l-3,3a.48.48,0,0,0,0,.7A.47.47,0,0,0,7.5,11Z"/><path  d="M7.15,14.85a.48.48,0,0,0,.7,0l7-7a.49.49,0,0,0-.7-.7l-7,7A.48.48,0,0,0,7.15,14.85Z"/><path  d="M18.77,13.84a.25.25,0,0,0,.5,0A1.76,1.76,0,0,1,21,12.09a.25.25,0,0,0,0-.5,1.75,1.75,0,0,1-1.75-1.75.25.25,0,0,0-.5,0A1.75,1.75,0,0,1,17,11.59a.25.25,0,0,0,0,.5A1.75,1.75,0,0,1,18.77,13.84Z"/><path  d="M17.5,18.5a5,5,0,0,1,5,5,.5.5,0,0,0,1,0,5,5,0,0,1,5-5,.5.5,0,0,0,0-1,5,5,0,0,1-5-5,.5.5,0,0,0-1,0,5,5,0,0,1-5,5,.5.5,0,0,0,0,1ZM23,14.9A6.09,6.09,0,0,0,26.1,18,6.09,6.09,0,0,0,23,21.1,6.09,6.09,0,0,0,19.9,18,6.09,6.09,0,0,0,23,14.9Z"/><path  d="M27,3H5A2,2,0,0,0,3,5V27a2,2,0,0,0,2,2h6a2,2,0,0,0,2-2V25h6v2a2,2,0,0,0,2,2h6a2,2,0,0,0,2-2V21a1,1,0,0,0-2,0v6H21V25a2,2,0,0,0-2-2H13a2,2,0,0,0-2,2v2H5V5H27V15a1,1,0,0,0,2,0V5A2,2,0,0,0,27,3Z"/></g></svg>
